X:862
T:Steer the Gill
T:Lassintullich
R:Reel
B:The Athole Collection
M:C|
L:1/8
K:D
A|d2AB AGFD|d2AB Agfe|d2AB AGFD|E=C C/C/C =c2c:|
|:e|d(DD)B AGFD|d(DD)B Agfe|d(DD)B AGFD|E=C C/C/C =c2c:|

